X:1
T:Title
%%score { 1 | ( 2 3 ) }
L:1/8
Q:1/4=100
M:4/4
K:G
V:1 treble nm="Grand Piano"
V:2 bass 
V:3 bass 
V:1
 [Bd]3 [Bd] [_B^c][=Bd] [=ce]>[Bd] | [Bd]3 [_B^c] [A=c]4 | [cf]3 [ce] [cd][cd] [ce]>[cd] | %3
w: Grant~Colfax~Tullar * * * * *|||
 [Bd]6 z2 | g3 g gg [df]>[d=f] | [ce]4 [Gc]2 [_B^c]2 | [Bd]3 [Bd] [Bd][ce] [Bd]>[Ac] | [GB]6 z2 | %8
w: |||||
 [cf]3 [ce] [cd][cf] [ce]>[Bd] | [Bd]4 [dg]4 | [ce]3 [ce] [ce][ce] [ce]>[ce] | %11
w: |||
[M:9/8] [B^d]3- [Bd] [c=d]2- [cd] z z |[M:4/4] g3 g gg [df]>[d=f] | [ce]4 [Gc]2 [_B^c]2 | %14
w: |||
 [Bd]3 [Bd] [Bd][ce] [Bd]>[Ac] | [GB]6 z2 |] %16
w: ||
V:2
 [G,,G,]3 [G,,G,] [G,,G,][G,,G,] [G,,G,]>[G,,G,] | [D,G,]4 [D,F,]4 | %2
 [D,A,]3 [D,G,] [D,F,][D,F,] [D,G,]>[D,F,] | [G,,G,]6 z2 | %4
 [G,,B,d]3 [G,,B,d] [G,,B,d][G,,B,d] [G,,A,]>[B,,G,] | z4 G,4 | %6
 [D,G,]3 [D,G,] [D,G,][D,F,] [D,G,]>D, | [G,,D,]6 z2 | [D,A,]3 [D,G,] [D,F,][D,A,] [D,G,]>[D,F,] | %9
 G,4 [G,B,]4 | [C,G,]3 [C,G,] [C,G,][C,G,] [C,A,]>[C,E,] |[M:9/8] F,6- F,/ z/ z z | %12
[M:4/4] [G,,B,d]3 [G,,B,d] [G,,B,d][G,,B,d] [A,,A,]>[B,,G,] | z4 G,4 | %14
 [D,G,]3 [D,G,] [D,G,][D,G,] [D,G,]>D, | [G,,D,]6 z2 |] %16
V:3
 x8 | x8 | x8 | x8 | x8 | [C,G,]4 E,2 ^D,2 | x8 | x8 | x8 | x8 | x8 | %11
[M:9/8] B,,3- B,, A,,2- A,, z z |[M:4/4] x8 | [C,G,]4 E,2 ^D,2 | x8 | x8 |] %16

